X: 10562
T: ATHOLE HOUSE.     a Reel.
R: reel
B: "Edinburgh Repository of Music" v.1 p.56 #2
F: http://digital.nls.uk/special-collections-of-printed-music/pageturner.cfm?id=87776133
Z: 2015 John Chambers <jc:trillian.mit.edu>
M: C
L: 1/8
K: G
g |\
.d.G.B.G dG (e/d/c/B/) | .d.G.B.G FA-Ag |\
.d.G.B.G .d.B.g.d | (e/d/c/B/) .d.D EGG :|\
d |\
Tg2 (b/a/g/f/) gdBd | Gd e/d/c/B/ cAA>d |
Tg2 (b/a/)g .d.gBd | (e/f/g) (f/g/a) (dgg).d |\
gdbg fdc'a | b>gdg | fa-a>c' |\
b>gdg ecAc | B<G dD EG-G |]

%%sep 2 1 500
%%sep 1 1 500

